32x32/apps/wootility.svg

<svg xmlns="http://www.w3.org/2000/svg" width="32" height="32" version="1">
 <rect style="opacity:0.2" width="28" height="20" x="2" y="7" rx="1.273" ry="1.429"/>
 <rect style="fill:#f4f4f7" width="28" height="20" x="2" y="6" rx="1.273" ry="1.429"/>
 <rect style="fill:#4f4f4f" width="22" height="14" x="5" y="9"/>
 <path style="opacity:0.2" d="m 6.9431818,12 1.6477273,10 h 3.9545459 1.977272 3.954546 1.07759 3.954546 l 1.647727,-10 h -3.954545 l -0.941007,6 H 18 v -6 h -4 v 6 h -2.161266 l -0.941007,-6 z"/>
 <path style="fill:#f4f4f7" d="m 6.9431818,11 1.6477273,10 h 3.9545459 1.977272 3.954546 1.07759 3.954546 l 1.647727,-10 h -3.954545 l -0.941007,6 H 18 v -6 h -4 v 6 h -2.161266 l -0.941007,-6 z"/>
 <path style="fill:#f4f4f7;opacity:0.2" d="M 3.2734375 6 C 2.5683465 6 2 6.6363059 2 7.4277344 L 2 8.4277344 C 2 7.6363059 2.5683465 7 3.2734375 7 L 28.726562 7 C 29.431653 7 30 7.6363059 30 8.4277344 L 30 7.4277344 C 30 6.6363059 29.431653 6 28.726562 6 L 3.2734375 6 z"/>
 <path style="opacity:0.2;fill:#f4f4f7" d="M 6.9433594 11 L 7.1074219 12 L 10.898438 12 L 11.837891 18 L 14 18 L 14 17 L 11.837891 17 L 10.898438 11 L 6.9433594 11 z M 14 11 L 14 12 L 18 12 L 18 11 L 14 11 z M 21.203125 11 L 20.261719 17 L 18 17 L 18 18 L 20.261719 18 L 21.203125 12 L 24.992188 12 L 25.15625 11 L 21.203125 11 z"/>
 <rect style="opacity:0.2" width="22" height="1" x="5" y="9"/>
 <rect style="opacity:0.2;fill:#f4f4f7" width="22" height="1" x="5" y="23"/>
</svg>

<svg xmlns="http://www.w3.org/2000/svg" width="32" height="32" version="1"><rect style="opacity:.2" width="28" height="20" x="2" y="7" rx="1.273" ry="1.429"/><rect style="fill:#f4f4f7" width="28" height="20" x="2" y="6" rx="1.273" ry="1.429"/><path style="fill:#4f4f4f" d="M5 9h22v14H5z"/><path style="opacity:.2" d="m6.943 12 1.648 10H23.509l1.648-10h-3.954l-.941 6H18v-6h-4v6h-2.161l-.941-6z"/><path style="fill:#f4f4f7" d="m6.943 11 1.648 10H23.509l1.648-10h-3.954l-.941 6H18v-6h-4v6h-2.161l-.941-6z"/><path style="fill:#f4f4f7;opacity:.2" d="M3.273 6C2.568 6 2 6.636 2 7.428v1C2 7.636 2.568 7 3.273 7h25.454C29.432 7 30 7.636 30 8.428v-1C30 6.636 29.432 6 28.727 6H3.273z"/><path style="opacity:.2;fill:#f4f4f7" d="m6.943 11 .164 1h3.791l.94 6H14v-1h-2.162l-.94-6H6.943zM14 11v1h4v-1h-4zm7.203 0-.941 6H18v1h2.262l.941-6h3.79l.163-1h-3.953z"/><path style="opacity:.2" d="M5 9h22v1H5z"/><path style="opacity:.2;fill:#f4f4f7" d="M5 23h22v1H5z"/></svg>
